src/static/svgs/metager/metager-key-icon.svg

<svg
   xmlns="http://www.w3.org/2000/svg"
   version="1.1"
   viewBox="0 0 20.097663 20.286787"
   height="76.674469"
   width="75.959671"
  >
  <path
     style="mix-blend-mode:normal;fill:#585858;fill-opacity:1;stroke:#ff7f00;stroke-width:0.15874999;stroke-miterlimit:4;stroke-dasharray:0.079375, 0.07937500000000000;stroke-opacity:1;opacity:1;stroke-dashoffset:0"
     d="m 18.548841,20.021815 -1.423824,-0.0016 V 19.267543 18.51486 h -0.807962 -0.807963 l -0.0027,-0.808963 -0.0027,-0.808962 -0.864514,-0.0025 -0.864514,-0.0025 -3.106893,-3.078012 -3.106948,-3.078087 -0.6161008,0.192735 C 5.369567,11.421386 3.8428529,11.310566 2.4979419,10.605831 1.9507919,10.319124 1.8313133,10.222373 1.2635892,9.6062807 0.76770822,9.0681533 0.58520984,8.815025 0.39904078,8.4071476 -0.40413009,6.6474745 -0.21795172,4.5496725 0.89050402,2.8694977 2.5503663,0.35351264 5.808419,-0.61871048 8.3260753,0.65067571 8.8445141,0.91207017 9.0326166,1.0544137 9.5795476,1.5992191 10.139883,2.1573327 10.260718,2.3179174 10.514507,2.8412454 11.16255,4.1775219 11.26177,5.6895827 10.791983,7.0698361 L 10.643076,7.507329 13.3539,10.218376 c 1.490968,1.491061 3.578542,3.611855 4.639058,4.712871 l 1.928207,2.001851 0.06318,1.507753 c 0.03477,0.829238 0.04634,1.524573 0.02576,1.545164 -0.02059,0.02059 -0.67816,0.03674 -1.461263,0.03585 z M 13.775196,13.655162 C 9.3166978,9.1966642 9.2785429,9.1603557 9.1677711,9.2711278 c -0.11077,0.1107693 -0.074463,0.148927 4.3840349,4.6074252 4.458499,4.458497 4.496653,4.494807 4.607426,4.384035 0.11077,-0.110771 0.07446,-0.148925 -4.384036,-4.607426 z M 6.559274,3.5432717 C 6.5241824,3.2494845 6.2131384,2.8922974 5.9638794,2.8595568 5.6099197,2.8130602 5.4524596,2.9338711 4.0856398,4.3006949 2.7188201,5.667514 2.5980035,5.8249757 2.644501,6.1789343 2.6772445,6.4281918 3.0344321,6.7392357 3.3282168,6.7743292 l 0.2628987,0.031399 1.499778,-1.4997774 1.4997773,-1.4997773 z"
  />
</svg>

<svg width="20" height="20" xmlns="http://www.w3.org/2000/svg" version="1.1">
 <path d="m18.54884,20.02182l-1.42382,-0.0016l0,-0.75268l0,-0.75268l-0.80797,0l-0.80796,0l-0.0027,-0.80896l-0.0027,-0.80897l-0.86451,-0.0025l-0.86452,-0.0025l-3.10689,-3.07801l-3.10695,-3.07808l-0.6161,0.19273c-1.57515,0.49282 -3.10187,0.382 -4.44678,-0.32274c-0.54715,-0.28671 -0.66663,-0.38346 -1.23435,-0.99955c-0.49588,-0.53813 -0.67838,-0.79125 -0.86455,-1.19913c-0.80317,-1.75968 -0.61699,-3.85748 0.49146,-5.53765c1.65987,-2.51599 4.91792,-3.48821 7.43558,-2.21882c0.51843,0.26139 0.70654,0.40373 1.25347,0.94854c0.56033,0.55811 0.68117,0.7187 0.93496,1.24203c0.64804,1.33627 0.74726,2.84833 0.27747,4.22859l-0.1489,0.43749l2.71082,2.71105c1.49097,1.49106 3.57854,3.61185 4.63906,4.71287l1.92821,2.00185l0.06318,1.50775c0.03477,0.82924 0.04634,1.52457 0.02575,1.54516c-0.02058,0.02059 -0.67815,0.03674 -1.46126,0.03585l0,-0.00004zm-4.77364,-6.36666c-4.4585,-4.4585 -4.49666,-4.4948 -4.60743,-4.38403c-0.11077,0.11077 -0.07446,0.14892 4.38404,4.60742c4.45849,4.4585 4.49665,4.49481 4.60742,4.38404c0.11077,-0.11077 0.07446,-0.14893 -4.38403,-4.60743zm-7.21593,-10.11189c-0.03509,-0.29379 -0.34613,-0.65097 -0.59539,-0.68371c-0.35396,-0.0465 -0.51142,0.07431 -1.87824,1.44113c-1.36682,1.36682 -1.48764,1.52429 -1.44114,1.87824c0.03274,0.24926 0.38993,0.56031 0.68372,0.5954l0.2629,0.0314l1.49977,-1.49978l1.49978,-1.49978l-0.0314,-0.2629z" fill="#585858" stroke="#ff7f00" stroke-width="0.15875" stroke-miterlimit="4" stroke-dasharray="0.079375, 0.07937500000000000" stroke-dashoffset="0"/>
</svg>
